X:1
T:Sonata
T:Sonata No. 16 in C Major, K. 545 (1 st movement) 
T:Wolfgang Amadeus Mozart
C:Mozart
%%score { ( 1 3 ) | 2 }
L:1/8
Q:1/4=132
M:4/4
K:C
V:1 treble nm="Piano" snm="Pno."
V:3 treble 
V:2 treble 
V:1
"^Allegro"!mp! (c4 e2 g2 | !>!B3 c/d/ c2) z2 | (a4!<(! g2 c'2!<)! | %3
!>(! g2 (3f/g/f/e/f/ e2)!>)! z2 |!p!!<(! (AB/c/ d/e/f/g/!<)!!>(! a/g/f/e/ d/c/B/A/!>)! | %5
!<(! GA/B/ c/d/e/f/!<)!!>(! g/f/e/d/ c/B/A/G/!>)! | %6
!<(! FG/A/ B/c/d/e/!<)!!>(! f/e/d/c/ B/A/G/F/!>)! | %7
!<(! EF/G/ A/B/c/d/!<)!!>(! e/d/c/B/ A/G/F/E/!>)! |!p! DE/F/ G/A/B/^c/ d/A/B/"_cresc."c/ d/e/f/g/ | %9
 a/b/c'/b/ a/g/f/e/ f/g/a/g/ f/e/d/c/ |!f! !>!B.g).e.c (!>!d.g).e.c | .d2 .[Bdg]2 .G2 z2 | z8 | %13
!mp! (!>!d'.b) (g3 a/b/ ag) | (!>!a/4g/4a/4g/4a/4g/4.^f/) f2 z4 |!mp! (!>!d'.b) (g3 a/b/ ag) | %16
 (!>!a/4g/4a/4g/4a/4g/4.^f/) f2 z4 |!mf! d'2 z/ (d'/b/g/ !tenuto!e2) z/ (e/g/e/ | %18
 !>!c'2) z/ (c'/a/^f/ !tenuto!d2) z/ (d/f/d/ | !>!b2) z/ (b/g/e/ !tenuto!c2) z/ (c/e/c/ | %20
 !>!a2) z/ (a/^f/d/ !tenuto!B2) z/ (g/d/B/ |!p! A4)"_cresc."{/B} !tenuto!.c2{/^d} !tenuto!.e2 | %22
{/g} !>!a3 (b/4a/4^g/4a/4 c'.a)(.c'.a) |!f! (b.g) (d'4 c'/b/a/g/) |{/b} ((!trill(!Ta8{g)a} | %25
 .g2) (g/d/g/b/ !>!d'/b/g/b/ c'/a/^f/a/ | .g2) (G/D/G/B/ !>!d/B/G/B/ !>!c/A/^F/A/ | %27
 .G2) .[db]2 .[Bg]2 z2 ::!f! .G2 (g/d/g/_b/ !>!d'/b/g/b/ c'/a/^f/a/ | %29
 .g2) (G/D/G/_B/ !>!d/B/G/B/ !>!c/A/^F/A/ | .G2) z2 z/ (g/_b/a/ g/f/e/d/ | %31
 .^c2) z2 z/ (^c'/e'/d'/ =c'/_b/a/g/ | .f2) (d/A/d/f/ !>!a/f/d/f/ !>!g/e/^c/e/ | %33
 .d2) (D/A,/D/F/ !>!A/F/D/F/ !>!G/E/^C/E/) | z/ (D/E/F/ G/A/B/^c/ .d2) z2 | %35
 z/ (B/c/d/ e/^f/^g/a/ .b2) z2 | z/ (a/e'/d'/ c'/b/a/g/ .f2) z2 | z/ (g/d'/c'/ b/a/g/f/ .e2) z2 | %38
 z/ (f/c'/b/ a/g/f/e/ .d2) z2 | z/ (e/b/a/ ^g/f/e/d/ .c2) z2 | %40
 z/ (_B/d/c/ B/A/G/F/!>(! E/F/G/A/ B/c/d/e/!>)! | f4 a2 c'2 | !>!e3 f/g/ f2) z2 | %43
 (d'4!<(! c'2 f'2!<)! |!>(! c'2 (3_b/c'/b/a/b/ a2)!>)! z2 | %45
!p!!<(! (de/f/ g/a/_b/c'/!<)!!>(! d'/c'/b/a/ g/f/e/d/!>)! | %46
!<(! cd/e/ f/g/a/_b/!<)!!>(! c'/b/a/g/ f/e/d/c/!>)! | %47
!<(! _Bc/d/ e/f/g/a/!<)!!>(! _b/a/g/f/ e/d/c/B/!>)! | %48
!<(! A_B/c/ d/e/f/g/!<)!!>(! a/g/f/e/ d/c/B/A/!>)! |!mf! .a2) z2 z2 .[ca]2 | .[cg]2 z2 z2 .[cg]2 | %51
 .[cf]2 z2 z2 .[Bf]2 | .[ce]2 z2 z2 .[ce]2 |!p! (d/D/E/F/ G/A/B/^c/ d/A/B/"_cresc."c/ d/e/f/g/ | %54
 a/b/c'/b/ a/g/f/e/ f/g/a/g/ f/e/d/c/ |!f! !>!Bg).e.c (!>!d.g).e.c | .d2 .[Bdg]2 .G2 z2 | z8 | %58
!mp! (!>!g.e) (c3 d/e/ d.c) | (!>!d/4c/4d/4c/4d/4c/4.B/) B2 z4 | (!>!g.e) (c3 d/e/ d.c) | %61
 (!>!d/4c/4d/4c/4d/4c/4.B/) B2 z4 |!mf! !tenuto!g2 z/ (g/e/c/ !tenuto!A2) z/ (A/c/A/ | %63
 !>!f2) z/ (f/d/B/ !tenuto!G2) z/ (g/b/g/ | !>!e'2) z/ (e'/c'/a/ !tenuto!f2) z/ (f/a/f/ | %65
 !>!d'2) z/ (d'/b/g/ !tenuto!e2) z/ (c'/g/e/ | %66
!p! !tenuto!.d4)"_cresc."{/^c} !tenuto!.d2{/c} !tenuto!.d2 | %67
 !>!!tenuto!.a4{/^g} !tenuto!.a2{/g} !tenuto!.a2 |!f! (ga/b/ c'/d'/e'/d'/ c'/b/a/g/ f/e/d/c/) | %69
{/e} (!trill(!Td8{c)d} | .c2 (c/G/c/e/ !>!g/e/c/e/ !>!f/d/B/d/ | %71
 .c2) (C/G,/C/E/ !>!G/E/C/E/ !>!F/D/B,/D/ | .C2) .[egc']2 .c2 z2 :| %73
V:2
!p! (CGEG CGEG) | (DGFG CGEG) | (CAFA CGEG) | (B,GDG CGEG) | F2 z2 z2[K:bass] .[F,C]2 | %5
 .[E,C]2 z2 z2 .[E,C]2 | .[D,C]2 z2 z2 .[D,B,]2 | .[C,C]2 z2 z2 .[C,E,]2 | [F,A,]8 | %9
 (F,3 G, A,3 ^F,) | G,,/B,,/D,/G,/ G,,/C,/E,/G,/ G,,/B,,/D,/G,/ G,,/C,/E,/G,/ | %11
 .G,,2 .G,2 .G,,2 z2 |!p! (!>!^C/D/C/D/ C/D/C/D/ !>!=C/D/C/D/ C/D/C/D/) | %13
 (!>!B,/D/B,/D/ B,/D/B,/D/ B,/D/B,/D/ B,/D/B,/D/) | %14
!mp! (C/D/B,/D/ A,/D/B,/D/ C/D/B,/D/ C/D/A,/D/) | %15
!p! (B,/D/B,/D/ B,/D/B,/D/ B,/D/B,/D/ B,/D/B,/D/) | %16
!mp! (C/D/B,/D/ A,/D/B,/D/ C/D/B,/D/ C/D/A,/D/) | z8 | z8 | z8 | %20
 z/ (^F,/A,/D/ !tenuto!^F2) z/ (G,/B,/D/ !tenuto!G2) | %21
[K:treble] .[CE].[CE].[CE].[CE] .[CE].[CE].[CE].[CE] | .[CE].[CE].[CE].[CE] .[CE].[CE].[CE].[CE] | %23
 ((D/B/G/B/ D/B/G/B/ D/B/G/B/ D/B/G/B/ | D/c/^F/c/ D/c/F/c/ D/c/F/c/ D/c/F/c/)) | %25
 .[GB]2 z2 z2 (([DAc]2 | .[GB]2)) z2 z2[K:bass] (([D,A,C]2 | .[G,B,]2)) .[G,,G,]2 .[G,,G,]2 z2 :: %28
 .[G,,G,]2 z2 z2[K:treble] ([DAc]2 | .[G_B]2) z2 z2[K:bass] [D,A,C]2 | %30
 z/ (G,,/A,,/_B,,/ C,/D,/E,/^F,/ .G,2) z2 | z/ (A,,/B,,/^C,/ D,/E,/^F,/^G,/ .A,2) z2 | %32
 .[D,,D,]2 z2 z2[K:treble] ([A,EG]2 | .[DF]2) z2 z2[K:bass] ([A,,E,G,]2 | %34
 .[D,F,]2) z2 z/ (D/F/E/ D/C/B,/A,/ | .^G,2) z2 z/ (G,/B,/A,/ G,/F,/E,/D,/ | %36
 .C,2) z2[K:treble] z/ (D/A/G/ F/E/D/C/ | .B,2) z2 z/ (C/G/F/ E/D/C/B,/ | %38
 .A,2) z2[K:bass] z/ (B,/F/E/ D/C/B,/A,/ | .^G,2) z2 z/ (A,/C/B,/ A,/=G,/F,/E,/ | D,4) [C,G,_B,]4 | %41
[K:treble]!p! (FcAc FcAc) | Gc_Bc FcAc | Fd_Bd FcAc | EcGc FcAc | _B2 z2 z2[K:bass] .[_B,F]2 | %46
 .[A,F]2 z2 z2 .[A,F]2 | .[G,F]2 z2 z2 .[G,E]2 | [F,F]2 z2 z4 | %49
!<(! (F,G,/A,/ _B,/C/D/E/!<)!!>(! F/E/D/C/ B,/A,/G,/F,/!>)! | %50
!<(! E,F,/G,/ A,/B,/C/D/!<)!!>(! E/D/C/B,/ A,/G,/F,/E,/!>)! | %51
!<(! D,E,/F,/ G,/A,/B,/C/!<)!!>(! D/C/B,/A,/ G,/F,/E,/D,/!>)! | %52
!<(! C,D,/E,/ F,/G,/A,/B,/!<)!!>(! C/B,/A,/G,/ F,/E,/D,/C,/!>)! | !tenuto![F,A,]8) | %54
 (F,3 G, A,3 ^F,) | G,,/B,,/D,/G,/ G,,/C,/E,/G,/ G,,/B,,/D,/G,/ G,,/C,/E,/G,/ | %56
 .G,,2 .G,2 .G,,2 z2 |[K:treble]!p! (!>!^F/G/F/G/ F/G/F/G/ !>!=F/G/F/G/ F/G/F/G/) | %58
 (!>!E/G/E/G/ E/G/E/G/ E/G/E/G/ E/G/E/G/) |!mp! (F/G/E/G/ D/G/E/G/ F/G/E/G/ F/G/D/G/) | %60
!p! (E/G/E/G/ E/G/E/G/ E/G/E/G/ E/G/E/G/) |!mp! (F/G/E/G/ D/G/E/G/ F/G/E/G/ F/G/D/G/) | %62
[K:bass] z/ (E,/G,/C/ !tenuto!E2) z/ (F,/A,/D/ !tenuto!F2) | %63
 z/ (D,/F,/B,/ !tenuto!D2) z/ (E,/G,/B,/ !tenuto!E2) | %64
[K:treble] z/ (C/E/A/ !tenuto!c2) z/ (D/F/A/ !tenuto!d2) | %65
 z/ (B,/D/G/ !tenuto!B2) z/ (C/E/G/ !tenuto!c2) | z .[FA].[FA].[FA] .[FA].[FA].[FA].[FA] | %67
[K:bass] z .[^F,C_E].[F,CE].[F,CE] .[F,CE].[F,CE].[F,CE].[F,CE] | %68
 (G,/E/C/E/ G,/E/C/E/ G,/E/C/E/ G,/E/C/E/) | (G,/F/D/F/ G,/F/D/F/ G,/F/D/F/ G,/F/D/F/) | %70
 .[CE]2 z2 z2 ([G,DF]2 | .[CE]2) z2 z2 ([G,,D,F,]2 | .[C,E,]2) .[C,C]2 .[C,,C,]2 z2 :| %73
V:3
 x8 | x8 | x8 | x8 | x8 | x8 | x8 | x8 | x8 | x8 | x8 | x8 | x8 | x8 | x8 | x8 | x8 | %17
 z/ (B,/D/G/ !tenuto!B2) z/ (C/E/G/ !tenuto!c2) | %18
 z/ (A,/C/^F/ !tenuto!A2) z/ (B,/D/F/ !tenuto!B2) | %19
 z/ (G,/B,/E/ !tenuto!G2) z/ (A,/C/E/ !tenuto!A2) | x8 | x8 | x8 | x8 | x8 | x8 | x8 | x8 :: x8 | %29
 x8 | x8 | x8 | x8 | x8 | x8 | x8 | x8 | x8 | x8 | x8 | x8 | x8 | x8 | x8 | x8 | x8 | x8 | x8 | %48
 x8 | x8 | x8 | x8 | x8 | x8 | x8 | x8 | x8 | x8 | x8 | x8 | x8 | x8 | x8 | x8 | x8 | x8 | x8 | %67
 x8 | x8 | x8 | x8 | x8 | x8 :| %73

